X: 13
T: Lilting Banshee, The
Z: GoPlayer
S: https://thesession.org/tunes/60#setting51907
R: jig
M: 6/8
L: 1/8
K: Ador
|:EAA EAA | BAB G2A|Bde dBA | BAB GED|
EAA EAA | BAB G2A|Bde dBA |1 BAA A2G :|2 BAA A2z ||
|: eaa age | dBA G2A|Bde dBA | def gag|
eaa age | dBA G2A|Bde dBA |1 BAA A2z :|2 BAA A2G ||

